X: 1
T: THE RAKES OF WESTMEATH -- JIG
B: Ryan's Mammoth Collection of Fiddle Tunes
R: jig
M: 9/8
L: 1/8
Z: Contributed 20010526030708 by John Chambers jc:trillian.mit.edu
K: D
  vd3  dAG FED | d3  dAF G2E | ABc dAG FED | =cBc E2F G2E :|
|: d2g fdf ecA | d2g fdf g2e | d2g fdf ecA | =cBc E2F G2E :|
